X:68
T:Arthur Darley's Jig
T:Swedish Jig, The
T:Bruckless Shore
R:jig
C:Arthur Darley (1873-1929)
H:"Bruckless Shore" is the original title.
D:Paddy Glackin: Ceol ar an bhFidil le Paddy Glackin
D:Arty McGlynn: McGlynn's Fancy
Z:id:hn-jig-68
M:6/8
K:D
~A3 AGF |[M:9/8] EDC D3 d2e |[M:6/8] fgf edc | d3 d2e |
fgf edc | dAA BAG | FED EDC | DA,B, CDE | Ddd Aee | 
Aff Agg | fed edc |1 d2d dcB :|2 d2d d=c_B ||
|: A=ff fef | A=ff fef | A=ff Agg | Aaa A_bb |
A=ff =fef | A=ff f2g | =fed ed^c |1 d2d d=c_B :|2 d2d d2e ||
|: fgf edc | dAA BAG | FED EDC | DA,B, CDE |
Ddd Aee | Aff Agg | fed edc |1 d2d d2e :|2 d2d dcB ||

